src/components/icon/assets/level-up.svg

<?xml version="1.0" encoding="UTF-8"?>
<svg width="24px" height="24px" viewBox="0 0 24 24" version="1.1" xmlns="http://www.w3.org/2000/svg" xmlns:xlink="http://www.w3.org/1999/xlink">
    <!-- Generator: Sketch 60 (88103) - https://sketch.com -->
    <title>Level Up</title>
    <desc>Created with Sketch.</desc>
    <g id="Level-Up" stroke="none" stroke-width="1" fill="none" fill-rule="evenodd">
        <path d="M20,18.2222222 C20,19.2040618 19.2040618,20 18.2222222,20 L5.77777778,20 C4.79593822,20 4,19.2040618 4,18.2222222 L4,5.77777778 C4,4.79593822 4.79593822,4 5.77777778,4 L18.2222222,4 C19.2088889,4 20,4.8 20,5.77777778 L20,18.2222222 L20,18.2222222 Z M13.4204204,18.2222222 L13.4204204,10.2625608 L16.8363363,13.5400684 L18.2222222,12.2103368 L12.4444444,6.66666667 L6.66666667,12.2103368 L8.05255255,13.5400684 L11.4684685,10.2625608 L11.4684685,18.2222222 L13.4204204,18.2222222 Z" id="Shape" fill="#000000"></path>
    </g>
</svg>

<svg xmlns="http://www.w3.org/2000/svg" viewBox="0 0 24 24"><path d="M20 18.222c0 .982-.796 1.778-1.778 1.778H5.778A1.778 1.778 0 014 18.222V5.778C4 4.796 4.796 4 5.778 4h12.444C19.21 4 20 4.8 20 5.778v12.444zm-6.58 0v-7.96l3.416 3.278 1.386-1.33-5.778-5.543-5.777 5.543 1.386 1.33 3.415-3.277v7.96h1.952z" fill-rule="evenodd"/></svg>
